web/wp-content/themes/cncf-twenty-two/images/projects/volcano-icon-color.svg

<svg id="图层_1" data-name="图层 1" xmlns="http://www.w3.org/2000/svg" xmlns:xlink="http://www.w3.org/1999/xlink" viewBox="0 0 360 360"><defs><style>.cls-1{fill:url(#未命名的渐变_48);}</style><linearGradient id="未命名的渐变_48" x1="180.83333" y1="261.2186" x2="180.83333" y2="90.33333" gradientUnits="userSpaceOnUse"><stop offset="0" stop-color="#eb5520"/><stop offset="0.24727" stop-color="#eb511f"/><stop offset="0.50344" stop-color="#eb441d"/><stop offset="0.76272" stop-color="#eb301a"/><stop offset="1" stop-color="#eb1616"/></linearGradient></defs><title>volcano-icon-color</title><path class="cls-1" d="M152.60633,137.27455,130.13278,114.801a1.16728,1.16728,0,0,1,0-1.65075l22.47569-22.47569a1.16417,1.16417,0,0,1,1.6469,0l22.47569,22.47569a1.16715,1.16715,0,0,1,0,1.65075l-22.47355,22.47355A1.167,1.167,0,0,1,152.60633,137.27455Zm-5.95834,3.27459-19.7898-19.7898a1.16985,1.16985,0,0,0-1.65417,0l-19.78979,19.7898a1.16959,1.16959,0,0,0,0,1.6546L125.20744,161.997a1.1647,1.1647,0,0,0,1.64734,0L146.648,142.20374A1.17037,1.17037,0,0,0,146.648,140.54914Zm54.80162,0-19.78973-19.7898a1.16992,1.16992,0,0,0-1.65423,0l-19.7898,19.7898a1.17037,1.17037,0,0,0,0,1.6546l19.7898,19.78979a1.16992,1.16992,0,0,0,1.65423,0l19.78973-19.78979A1.17037,1.17037,0,0,0,201.44961,140.54914Zm-84.87914,27.40444L99.45418,150.83729a1.16514,1.16514,0,0,0-1.6477,0L80.69055,167.95358a1.16468,1.16468,0,0,0,0,1.64734l17.11593,17.11629a1.16512,1.16512,0,0,0,1.6477,0l17.11629-17.11629A1.16546,1.16546,0,0,0,116.57047,167.95358Zm54.8012,0L154.2558,150.83729a1.16521,1.16521,0,0,0-1.64776,0l-17.11587,17.11629a1.1647,1.1647,0,0,0,0,1.64734L152.608,186.71721a1.16519,1.16519,0,0,0,1.64776,0l17.11587-17.11629A1.1647,1.1647,0,0,0,171.37167,167.95358Zm54.80162,0-17.11586-17.11629a1.16522,1.16522,0,0,0-1.64777,0l-17.1158,17.11629a1.16457,1.16457,0,0,0,0,1.64734l17.1158,17.11629a1.1652,1.1652,0,0,0,1.64777,0l17.11586-17.11629A1.16457,1.16457,0,0,0,226.17329,167.95358ZM86.48911,195.355,72.05272,180.91865a1.16417,1.16417,0,0,0-1.6469,0L55.96949,195.355a1.1638,1.1638,0,0,0,0,1.64605l14.43675,14.43682a1.16444,1.16444,0,0,0,1.64648,0l14.43639-14.43682A1.16314,1.16314,0,0,0,86.48911,195.355Zm54.802,0-14.43638-14.43639a1.1647,1.1647,0,0,0-1.64734,0L110.77105,195.355a1.16392,1.16392,0,0,0,0,1.64605l14.43688,14.43682a1.16437,1.16437,0,0,0,1.64642,0l14.43681-14.43682A1.1639,1.1639,0,0,0,141.29116,195.355Zm54.80163,0L181.656,180.91822a1.16444,1.16444,0,0,0-1.64648,0L165.57268,195.355a1.164,1.164,0,0,0,0,1.64605l14.43681,14.43682a1.16444,1.16444,0,0,0,1.64648,0l14.43682-14.43682A1.16392,1.16392,0,0,0,196.09279,195.355Zm54.80162,0L236.4576,180.91822a1.16444,1.16444,0,0,0-1.64648,0L220.3743,195.355a1.16392,1.16392,0,0,0,0,1.64605l14.43682,14.43682a1.16444,1.16444,0,0,0,1.64648,0l14.43681-14.43682A1.1639,1.1639,0,0,0,250.89441,195.355ZM56.40561,222.7535,44.65383,211.00172a1.16726,1.16726,0,0,0-1.65075,0L31.2513,222.7535a1.16728,1.16728,0,0,0,0,1.65075L43.00308,236.156a1.16726,1.16726,0,0,0,1.65075,0l11.75178-11.75178A1.16726,1.16726,0,0,0,56.40561,222.7535Zm54.80163,0L99.45589,211.00172a1.16778,1.16778,0,0,0-1.65118,0L86.05293,222.7535a1.16726,1.16726,0,0,0,0,1.65075L97.80471,236.156a1.16778,1.16778,0,0,0,1.65118,0l11.75135-11.75178A1.16728,1.16728,0,0,0,111.20724,222.7535Zm54.80162,0-11.75135-11.75178a1.16778,1.16778,0,0,0-1.65118,0L140.855,222.7535a1.16648,1.16648,0,0,0,0,1.65075L152.60633,236.156a1.16778,1.16778,0,0,0,1.65118,0l11.75135-11.75178A1.16726,1.16726,0,0,0,166.00886,222.7535Zm54.80163,0-11.75136-11.75178a1.16769,1.16769,0,0,0-1.65111,0L195.6566,222.7535a1.16728,1.16728,0,0,0,0,1.65075L207.408,236.156a1.16769,1.16769,0,0,0,1.65111,0l11.75136-11.75178A1.16639,1.16639,0,0,0,220.81049,222.7535Zm54.80211,0-11.75184-11.75178a1.16778,1.16778,0,0,0-1.65118,0L250.45829,222.7535a1.16715,1.16715,0,0,0,0,1.65075L262.20958,236.156a1.16778,1.16778,0,0,0,1.65118,0l11.75184-11.75178A1.16737,1.16737,0,0,0,275.6126,222.7535ZM26.32639,250.15624l-9.07523-9.07487a1.16425,1.16425,0,0,0-1.647,0l-9.07486,9.07487a1.16417,1.16417,0,0,0,0,1.6469l9.07358,9.07358a1.16623,1.16623,0,0,0,1.6499,0l9.07358-9.07358A1.165,1.165,0,0,0,26.32639,250.15624Zm54.80168,0-9.07535-9.07487a1.16417,1.16417,0,0,0-1.6469,0L61.331,250.15624a1.16406,1.16406,0,0,0,0,1.6469l9.07267,9.07273a1.16754,1.16754,0,0,0,1.65161,0l9.07278-9.07273A1.165,1.165,0,0,0,81.12807,250.15624Zm54.80157,0-9.07267-9.07273a1.1676,1.1676,0,0,0-1.65166,0l-9.07059,9.07016a1.16882,1.16882,0,0,0,0,1.652l9.07059,9.07016a1.1676,1.1676,0,0,0,1.65166,0l9.07267-9.07273A1.16417,1.16417,0,0,0,135.92964,250.15624Zm54.79906-.23582-9.07016-9.07017a1.16754,1.16754,0,0,0-1.65161,0l-9.07273,9.0723a1.1647,1.1647,0,0,0,0,1.64734l9.07273,9.07272a1.1683,1.1683,0,0,0,1.65161,0l9.07016-9.07059A1.16753,1.16753,0,0,0,190.7287,249.92042Zm54.80205,0-9.07059-9.07017a1.16754,1.16754,0,0,0-1.65161,0l-9.07272,9.0723a1.1647,1.1647,0,0,0,0,1.64734l9.07272,9.07272a1.1683,1.1683,0,0,0,1.65161,0l9.07059-9.07059A1.16829,1.16829,0,0,0,245.53075,249.92042Zm54.80163,0-9.07059-9.07017a1.16754,1.16754,0,0,0-1.65161,0l-9.07273,9.0723a1.16548,1.16548,0,0,0,0,1.64734l9.07273,9.07272a1.1683,1.1683,0,0,0,1.65161,0l9.07059-9.07059A1.16818,1.16818,0,0,0,300.33238,249.92042ZM209.05743,137.27626l22.477-22.477a1.16469,1.16469,0,0,0,0-1.64733l-22.477-22.4774a1.16522,1.16522,0,0,0-1.64777,0l-22.477,22.4774a1.16469,1.16469,0,0,0,0,1.64733l22.477,22.477A1.16522,1.16522,0,0,0,209.05743,137.27626Zm27.404,24.71727,19.78986-19.78979a1.16959,1.16959,0,0,0,0-1.6546l-19.78986-19.7898a1.16985,1.16985,0,0,0-1.65417,0l-19.78979,19.7898a1.17037,1.17037,0,0,0,0,1.6546l19.78979,19.78979A1.16985,1.16985,0,0,0,236.46144,161.99353Zm27.39761,24.72368,17.11587-17.11629a1.1647,1.1647,0,0,0,0-1.64734l-17.11587-17.11629a1.16521,1.16521,0,0,0-1.64776,0l-17.11587,17.11629a1.1647,1.1647,0,0,0,0,1.64734l17.11587,17.11629A1.16519,1.16519,0,0,0,263.85905,186.71721Zm27.40017,24.7207,14.43511-14.43511a1.16639,1.16639,0,0,0,0-1.64947l-14.43511-14.43511a1.16444,1.16444,0,0,0-1.64648,0L275.17636,195.355a1.16313,1.16313,0,0,0,0,1.64605l14.43638,14.43682A1.16444,1.16444,0,0,0,291.25922,211.43791ZM318.66238,236.156l11.75178-11.75178a1.16726,1.16726,0,0,0,0-1.65075l-11.75178-11.75178a1.16726,1.16726,0,0,0-1.65075,0L305.25985,222.7535a1.16739,1.16739,0,0,0,0,1.65075L317.01163,236.156A1.16726,1.16726,0,0,0,318.66238,236.156Zm27.40146,24.48658,9.0745-9.07486a1.162,1.162,0,0,0,0-1.64306l-9.0745-9.07444a1.16806,1.16806,0,0,0-1.652,0l-9.07272,9.0723a1.16546,1.16546,0,0,0,0,1.64734l9.07272,9.07272A1.16882,1.16882,0,0,0,346.06384,260.64261Z"/></svg>

<svg id="图层_1" data-name="图层 1" xmlns="http://www.w3.org/2000/svg" viewBox="0 0 360 360"><defs><style>.cls-1{fill:url(#未命名的渐变_48)}</style><linearGradient id="未命名的渐变_48" x1="180.833" y1="261.219" x2="180.833" y2="90.333" gradientUnits="userSpaceOnUse"><stop offset="0" stop-color="#eb5520"/><stop offset=".247" stop-color="#eb511f"/><stop offset=".503" stop-color="#eb441d"/><stop offset=".763" stop-color="#eb301a"/><stop offset="1" stop-color="#eb1616"/></linearGradient></defs><path class="cls-1" d="M152.606 137.275L130.133 114.8a1.167 1.167 0 0 1 0-1.65l22.475-22.476a1.164 1.164 0 0 1 1.647 0l22.476 22.475a1.167 1.167 0 0 1 0 1.651l-22.473 22.474a1.167 1.167 0 0 1-1.652 0zm-5.958 3.274l-19.79-19.79a1.17 1.17 0 0 0-1.654 0l-19.79 19.79a1.17 1.17 0 0 0 0 1.655l19.793 19.793a1.165 1.165 0 0 0 1.648 0l19.793-19.793a1.17 1.17 0 0 0 0-1.655zm54.802 0l-19.79-19.79a1.17 1.17 0 0 0-1.654 0l-19.79 19.79a1.17 1.17 0 0 0 0 1.655l19.79 19.79a1.17 1.17 0 0 0 1.654 0l19.79-19.79a1.17 1.17 0 0 0 0-1.655zm-84.88 27.405l-17.116-17.117a1.165 1.165 0 0 0-1.648 0l-17.115 17.117a1.165 1.165 0 0 0 0 1.647l17.115 17.116a1.165 1.165 0 0 0 1.648 0l17.116-17.116a1.165 1.165 0 0 0 0-1.647zm54.802 0l-17.116-17.117a1.165 1.165 0 0 0-1.648 0l-17.116 17.117a1.165 1.165 0 0 0 0 1.647l17.116 17.116a1.165 1.165 0 0 0 1.648 0l17.116-17.116a1.165 1.165 0 0 0 0-1.647zm54.801 0l-17.116-17.117a1.165 1.165 0 0 0-1.647 0l-17.116 17.117a1.165 1.165 0 0 0 0 1.647l17.116 17.116a1.165 1.165 0 0 0 1.647 0l17.116-17.116a1.165 1.165 0 0 0 0-1.647zM86.49 195.355l-14.436-14.436a1.164 1.164 0 0 0-1.647 0l-14.437 14.436a1.164 1.164 0 0 0 0 1.646l14.437 14.437a1.164 1.164 0 0 0 1.647 0L86.489 197a1.163 1.163 0 0 0 0-1.646zm54.802 0l-14.436-14.436a1.165 1.165 0 0 0-1.648 0l-14.436 14.436a1.164 1.164 0 0 0 0 1.646l14.437 14.437a1.164 1.164 0 0 0 1.646 0L141.291 197a1.164 1.164 0 0 0 0-1.646zm54.802 0l-14.437-14.437a1.164 1.164 0 0 0-1.646 0l-14.437 14.437a1.164 1.164 0 0 0 0 1.646l14.436 14.437a1.164 1.164 0 0 0 1.647 0L196.093 197a1.164 1.164 0 0 0 0-1.646zm54.801 0l-14.436-14.437a1.164 1.164 0 0 0-1.647 0l-14.437 14.437a1.164 1.164 0 0 0 0 1.646l14.437 14.437a1.164 1.164 0 0 0 1.647 0L250.894 197a1.164 1.164 0 0 0 0-1.646zM56.406 222.754l-11.752-11.752a1.167 1.167 0 0 0-1.65 0L31.25 222.753a1.167 1.167 0 0 0 0 1.651l11.752 11.752a1.167 1.167 0 0 0 1.65 0l11.753-11.752a1.167 1.167 0 0 0 0-1.65zm54.801 0l-11.751-11.752a1.168 1.168 0 0 0-1.651 0l-11.752 11.751a1.167 1.167 0 0 0 0 1.651l11.752 11.752a1.168 1.168 0 0 0 1.65 0l11.752-11.752a1.167 1.167 0 0 0 0-1.65zm54.802 0l-11.751-11.752a1.168 1.168 0 0 0-1.652 0l-11.751 11.751a1.166 1.166 0 0 0 0 1.651l11.751 11.752a1.168 1.168 0 0 0 1.652 0l11.75-11.752a1.167 1.167 0 0 0 0-1.65zm54.801 0l-11.75-11.752a1.168 1.168 0 0 0-1.652 0l-11.751 11.751a1.167 1.167 0 0 0 0 1.651l11.751 11.752a1.168 1.168 0 0 0 1.651 0l11.751-11.752a1.166 1.166 0 0 0 0-1.65zm54.803 0l-11.752-11.752a1.168 1.168 0 0 0-1.651 0l-11.752 11.751a1.167 1.167 0 0 0 0 1.651l11.752 11.752a1.168 1.168 0 0 0 1.65 0l11.753-11.752a1.167 1.167 0 0 0 0-1.65zM26.326 250.156l-9.075-9.075a1.164 1.164 0 0 0-1.647 0l-9.075 9.075a1.164 1.164 0 0 0 0 1.647l9.074 9.074a1.166 1.166 0 0 0 1.65 0l9.073-9.074a1.165 1.165 0 0 0 0-1.647zm54.802 0l-9.075-9.075a1.164 1.164 0 0 0-1.647 0l-9.075 9.075a1.164 1.164 0 0 0 0 1.647l9.073 9.073a1.168 1.168 0 0 0 1.651 0l9.073-9.073a1.165 1.165 0 0 0 0-1.647zm54.802 0l-9.073-9.072a1.168 1.168 0 0 0-1.652 0l-9.07 9.07a1.169 1.169 0 0 0 0 1.652l9.07 9.07a1.168 1.168 0 0 0 1.652 0l9.073-9.073a1.164 1.164 0 0 0 0-1.647zm54.799-.236l-9.07-9.07a1.168 1.168 0 0 0-1.652 0l-9.073 9.073a1.165 1.165 0 0 0 0 1.647l9.073 9.073a1.168 1.168 0 0 0 1.652 0l9.07-9.071a1.168 1.168 0 0 0 0-1.652zm54.802 0l-9.07-9.07a1.168 1.168 0 0 0-1.652 0l-9.073 9.073a1.165 1.165 0 0 0 0 1.647l9.073 9.073a1.168 1.168 0 0 0 1.651 0l9.07-9.071a1.168 1.168 0 0 0 0-1.652zm54.801 0l-9.07-9.07a1.168 1.168 0 0 0-1.652 0l-9.073 9.073a1.165 1.165 0 0 0 0 1.647l9.073 9.073a1.168 1.168 0 0 0 1.652 0l9.07-9.071a1.168 1.168 0 0 0 0-1.652zm-91.275-112.644l22.477-22.477a1.165 1.165 0 0 0 0-1.647l-22.477-22.477a1.165 1.165 0 0 0-1.647 0l-22.477 22.477a1.165 1.165 0 0 0 0 1.647l22.477 22.477a1.165 1.165 0 0 0 1.647 0zm27.404 24.718l19.79-19.79a1.17 1.17 0 0 0 0-1.655l-19.79-19.79a1.17 1.17 0 0 0-1.654 0l-19.79 19.79a1.17 1.17 0 0 0 0 1.655l19.79 19.79a1.17 1.17 0 0 0 1.654 0zm27.398 24.723l17.116-17.116a1.165 1.165 0 0 0 0-1.647l-17.116-17.117a1.165 1.165 0 0 0-1.648 0l-17.116 17.117a1.165 1.165 0 0 0 0 1.647l17.116 17.116a1.165 1.165 0 0 0 1.648 0zm27.4 24.72l14.435-14.434a1.166 1.166 0 0 0 0-1.65l-14.435-14.435a1.164 1.164 0 0 0-1.646 0l-14.437 14.437a1.163 1.163 0 0 0 0 1.646l14.437 14.437a1.164 1.164 0 0 0 1.646 0zm27.403 24.719l11.752-11.752a1.167 1.167 0 0 0 0-1.65l-11.752-11.752a1.167 1.167 0 0 0-1.65 0l-11.752 11.751a1.167 1.167 0 0 0 0 1.651l11.752 11.752a1.167 1.167 0 0 0 1.65 0zm27.402 24.487l9.074-9.075a1.162 1.162 0 0 0 0-1.643l-9.074-9.075a1.168 1.168 0 0 0-1.652 0l-9.073 9.073a1.165 1.165 0 0 0 0 1.647l9.073 9.073a1.169 1.169 0 0 0 1.652 0z"/></svg>
